packages/ui-icons/svg/Line/duplicate.svg

<svg viewBox="0 0 1920 1920" version="1.1" xmlns="http://www.w3.org/2000/svg">
    <path d="M0,1919.88709 L1467.87912,1919.88709 L1467.87912,452.007969 L0,452.007969 L0,1919.88709 Z M1354.96534,564.921747 L1354.96534,1806.97331 L112.913778,1806.97331 L112.913778,564.921747 L1354.96534,564.921747 Z M777.202768,800 L665.202768,800 L665.202,1118.041 L333,1118.04116 L333,1230.04116 L665.202,1230.041 L665.202768,1580 L777.202768,1580 L777.202,1230.041 L1113,1230.04116 L1113,1118.04116 L777.202,1118.041 L777.202768,800 Z M1920,0 L1920,1467.99203 L1581.25867,1467.99203 L1581.25867,1354.96534 L1807.08622,1354.96534 L1807.08622,112.913778 L565.034661,112.913778 L565.034661,338.741335 L452.007969,338.741335 L452.007969,0 L1920,0 Z" stroke="none" stroke-width="1" fill-rule="evenodd"/>
</svg>

<svg viewBox="0 0 1920 1920" version="1.1" xmlns="http://www.w3.org/2000/svg">
    <path d="M0 1919.887h1467.88V452.008H0v1467.88zm112.914-112.914V564.922h1242.051v1242.051H112.914zM452.008 0H1920v1467.992h-338.741v-113.027h225.827V112.914H565.035V338.74H452.008V0zm213.195 1118.041H333v112h332.203V1580h112v-349.959H1113v-112H777.203V800h-112v318.041z" stroke="none" stroke-width="1" fill-rule="evenodd"/>
</svg>
